X:1338
T: Belasicko
R:
O: Macedonia
N: Play entire tune twice for thre times through the dance.
B:
D:
Z: John Chambers <jc@eddie.mit.edu> http://eddie.mit.edu/~jc/music/
M: 4/4
L: 1/8
K: C
P: A
|: "C"ecd2 "G7"~d2cd | ~e2dc "C"efgf | "C"ecd2 "G7"~d2cd | ~e2dc "C"cdef |
|  "C"ecd2 "G7"~d2cd | ~e2dc "C"efgf | "C"ecd2 "G7"~d2cd |1 ~e2dc "C"cz gf :|2 ~e2dc "C"cz3 ||
P: B
|: "F"effz ~f2ef | "G"gfed "C"~e2dc | "C"ecdz "G7"~d2cd | ~e2dc "C"cdec |
|  "F"effz  fefa | "G"gfed "C"~e2dc | "C"ecdz "G7"~d2cd | ~e2dc "C"cz3 :|
P: C (4X)
|: "Am"~A2AA eAde | "G"gfed "C"~e2cB | "Am"~A2AA "Dm"dAde |1 "F"~c2"G"BG "Am"ABcd :|2 "F"~c2"G"BG "Am"Az3 :|
P: D (4X)
|: "G"dGGG DGBd | ~c2BG "Am"Az cd | "G"dGGG DGBd |1 cdBd "Am"~A2AA :|2 cdBd "Am"Az3 :|
P: E (4X)
|: "Dm"~d2dd adga | "C"c'bag "F"~a2fe | "Dm"~d2dd "Gm"gdga |1 "Bb"~f2"C"ec "Dm"defg :|2 "Bb"~f2"C"ec "Dm"dz3 :|
P: F (4X)
|: "C"gccc Gceg | ~f2ec "Dm"dz fg | "C"gccc Gceg |1 fgeg "Dm"~d2dd :|2 fgeg "Dm"dz3 :|


